fa/svgs/regular/face-grin-beam-sweat.svg

<svg xmlns="http://www.w3.org/2000/svg" viewBox="0 0 512 512"><!--! Font Awesome Free 6.1.1 by @fontawesome - https://fontawesome.com License - https://fontawesome.com/license/free (Icons: CC BY 4.0, Fonts: SIL OFL 1.1, Code: MIT License) Copyright 2022 Fonticons, Inc.--><path d="M464 128c-26.5 0-48-21-48-46.99 0-5 1.8-11.27 4.6-18.14.3-.7.6-1.41 1-2.13 8.9-20.23 26.5-44.88 36-57.459a7.882 7.882 0 0 1 12.8 0C483.4 20.65 512 61.02 512 81.01c0 21.69-14.9 39.79-35.2 45.29-4.1 1.1-8.4 1.7-12.8 1.7zm-72.9-77.47c-3.3 8.04-7.1 19.04-7.1 30.48 0 3.09.3 7.9.9 11.71C349.4 64.71 304.7 48 256 48 141.1 48 48 141.1 48 256s93.1 208 208 208 208-93.1 208-208c0-36.3-9.3-70.5-25.7-100.2 8.1 2.7 16.8 4.2 25.7 4.2 9.6 0 18.8-1.7 27.4-4.8 13.3 31 20.6 65 20.6 100.8 0 141.4-114.6 256-256 256S0 397.4 0 256 114.6 0 256 0c51.4 0 99.3 15.15 139.4 41.23-1.5 3.09-3 6.2-4.3 9.3zM255.9 399.1c-50.3 0-94.4-24.5-119-62.6-10.4-16.1 6.8-33.4 25.4-28.1 29 6.7 60.5 10.5 93.6 10.5 33.1 0 64.7-3.8 93.6-10.5 18.7-5.3 35.9 12 24.6 28.1-23.7 38.1-67.8 62.6-118.2 62.6zm-38.3-170.3-.2-.3c-.2-.2-.4-.5-.7-.9-.7-.8-1.6-1.9-2.8-3.3-2.5-2.9-6-6.6-10.2-11.2-8.8-6.9-18.9-13.1-27.7-13.1s-18.9 6.2-27.7 13.1c-4.2 4.6-7.7 8.3-10.2 11.2-1.2 1.4-3 2.5-2.8 3.3-1.2.4-.5.7-.7.9l-.2.3c-2.1 2.8-5.7 3.9-8.9 2.8-3.3-1.1-6.4-4.2-6.4-7.6 0-17.9 7.6-35.6 17.5-48.8 9.8-13 23.9-23.2 38.5-23.2 16.4 0 30.5 10.2 40.3 23.2 9.9 13.2 15.7 30.9 15.7 48.8 0 3.4-1.3 6.5-4.6 7.6-3.2 1.1-6.8 0-8.9-2.8zm160 0-.2-.3c-.2-.2-.4-.5-.7-.9-.7-.8-1.6-1.9-2.8-3.3-2.5-2.9-6-6.6-10.2-11.2-8.8-6.9-18.9-13.1-27.7-13.1s-18.9 6.2-27.7 13.1c-4.2 4.6-7.7 8.3-10.2 11.2-1.2 1.4-3 2.5-2.8 3.3-1.2.4-.5.7-.7.9l-.2.3c-2.1 2.8-5.7 3.9-8.9 2.8-3.3-1.1-5.5-4.2-5.5-7.6 0-17.9 6.7-35.6 16.6-48.8 9.8-13 23.9-23.2 39.4-23.2s29.6 10.2 39.4 23.2c9.9 13.2 16.6 30.9 16.6 48.8 0 3.4-2.2 6.5-5.5 7.6-3.2 1.1-6.8 0-8.9-2.8z"/></svg>

<svg xmlns="http://www.w3.org/2000/svg" viewBox="0 0 512 512"><!--! Font Awesome Free 6.2.1 by @fontawesome - https://fontawesome.com License - https://fontawesome.com/license/free (Icons: CC BY 4.0, Fonts: SIL OFL 1.1, Code: MIT License) Copyright 2022 Fonticons, Inc. --><path d="M464 128C437.5 128 416 107 416 81.01C416 76.01 417.8 69.74 420.6 62.87C420.9 62.17 421.2 61.46 421.6 60.74C430.5 40.51 448.1 15.86 457.6 3.281C460.8-1.094 467.2-1.094 470.4 3.281C483.4 20.65 512 61.02 512 81.01C512 102.7 497.1 120.8 476.8 126.3C472.7 127.4 468.4 128 464 128L464 128zM391.1 50.53C387.8 58.57 384 69.57 384 81.01C384 84.1 384.3 88.91 384.9 92.72C349.4 64.71 304.7 48 256 48C141.1 48 48 141.1 48 256C48 370.9 141.1 464 256 464C370.9 464 464 370.9 464 256C464 219.7 454.7 185.5 438.3 155.8C446.4 158.5 455.1 160 464 160C473.6 160 482.8 158.3 491.4 155.2C504.7 186.2 512 220.2 512 256C512 397.4 397.4 512 256 512C114.6 512 0 397.4 0 256C0 114.6 114.6 .0002 256 .0002C307.4 .0002 355.3 15.15 395.4 41.23C393.9 44.32 392.4 47.43 391.1 50.53V50.53zM255.9 399.1C205.6 399.1 161.5 374.6 136.9 336.5C126.5 320.4 143.7 303.1 162.3 308.4C191.3 315.1 222.8 318.9 255.9 318.9C289 318.9 320.6 315.1 349.5 308.4C368.2 303.1 385.4 320.4 374.1 336.5C350.4 374.6 306.3 399.1 255.9 399.1zM217.6 228.8L217.4 228.5C217.2 228.3 217 228 216.7 227.6C216 226.8 215.1 225.7 213.9 224.3C211.4 221.4 207.9 217.7 203.7 213.1C194.9 206.2 184.8 200 176 200C167.2 200 157.1 206.2 148.3 213.1C144.1 217.7 140.6 221.4 138.1 224.3C136.9 225.7 135.1 226.8 135.3 227.6C134.1 228 134.8 228.3 134.6 228.5L134.4 228.8L134.4 228.8C132.3 231.6 128.7 232.7 125.5 231.6C122.2 230.5 119.1 227.4 119.1 224C119.1 206.1 126.7 188.4 136.6 175.2C146.4 162.2 160.5 152 175.1 152C191.5 152 205.6 162.2 215.4 175.2C225.3 188.4 231.1 206.1 231.1 224C231.1 227.4 229.8 230.5 226.5 231.6C223.3 232.7 219.7 231.6 217.6 228.8L217.6 228.8zM377.6 228.8L377.6 228.8L377.4 228.5C377.2 228.3 377 228 376.7 227.6C376 226.8 375.1 225.7 373.9 224.3C371.4 221.4 367.9 217.7 363.7 213.1C354.9 206.2 344.8 200 336 200C327.2 200 317.1 206.2 308.3 213.1C304.1 217.7 300.6 221.4 298.1 224.3C296.9 225.7 295.1 226.8 295.3 227.6C294.1 228 294.8 228.3 294.6 228.5L294.4 228.8L294.4 228.8C292.3 231.6 288.7 232.7 285.5 231.6C282.2 230.5 280 227.4 280 224C280 206.1 286.7 188.4 296.6 175.2C306.4 162.2 320.5 152 336 152C351.5 152 365.6 162.2 375.4 175.2C385.3 188.4 392 206.1 392 224C392 227.4 389.8 230.5 386.5 231.6C383.3 232.7 379.7 231.6 377.6 228.8V228.8z"/></svg>
